packages/symbols/svgs/outline/style-outline.svg

<svg width="24" height="24" viewBox="0 0 24 24" fill="none" xmlns="http://www.w3.org/2000/svg">
<path fill-rule="evenodd" clip-rule="evenodd" d="M19.0849 3.32834C19.2953 3.11808 19.5806 2.99997 19.878 2.99997C20.1753 2.99997 20.4605 3.11798 20.6708 3.32807C20.881 3.53844 20.999 3.82364 20.999 4.12101C20.999 4.41846 20.8809 4.70373 20.6707 4.91413L13.477 12.1087C13.2904 11.7798 13.06 11.4769 12.7916 11.2084C12.5245 10.9414 12.2234 10.7121 11.8966 10.526L19.0849 3.32834ZM9.73853 11.9754C9.87128 12.0112 10.01 12.0192 10.1453 11.9995C10.3193 12.026 10.4899 12.0732 10.6534 12.1404C10.9242 12.2517 11.1703 12.4156 11.3774 12.6226C11.5844 12.8297 11.7483 13.0758 11.8596 13.3466C11.9316 13.5217 11.9806 13.7049 12.0059 13.8916C11.9938 14.0028 12.0004 14.1156 12.0255 14.225C12.0208 14.5095 11.9613 14.7905 11.8501 15.0525C11.7358 15.3221 11.5691 15.5663 11.3598 15.771L11.3533 15.7775C11.215 15.9152 10.8722 16.1085 10.2763 16.2992C9.7147 16.479 9.05011 16.6195 8.39613 16.7263C7.93056 16.8024 7.48251 16.8595 7.09865 16.9013C7.14054 16.5175 7.19759 16.0694 7.27365 15.6039C7.38049 14.9499 7.52103 14.2853 7.70079 13.7237C7.89155 13.1278 8.08483 12.785 8.22253 12.6467L8.22893 12.6402C8.43367 12.4308 8.6779 12.2642 8.94749 12.1499C9.19836 12.0435 9.46654 11.9844 9.73853 11.9754ZM9.61667 9.9787L17.6704 1.91437C18.2559 1.32931 19.0503 0.999969 19.878 0.999969C20.7057 0.999969 21.4995 1.32862 22.0849 1.91368C22.6699 2.49911 22.999 3.29335 22.999 4.12101C22.999 4.94867 22.6704 5.74246 22.0853 6.32789L14.0208 14.3934C13.9967 14.8885 13.8853 15.376 13.6914 15.8333C13.4744 16.3451 13.1583 16.8089 12.7613 17.1979C12.27 17.6853 11.5426 17.9938 10.886 18.204C10.1935 18.4257 9.42198 18.5853 8.71859 18.7002C8.01081 18.8158 7.3476 18.8901 6.86287 18.9354C6.61983 18.9582 6.42005 18.9738 6.28 18.9838C6.20994 18.9889 6.15473 18.9925 6.11641 18.9949L6.07183 18.9975L6.0595 18.9982L6.05477 18.9985L5.99999 18L5.00147 17.9456L5.00175 17.9405L5.00246 17.9282L5.00515 17.8836C5.00754 17.8453 5.01114 17.7901 5.01615 17.72C5.02616 17.5799 5.04181 17.3802 5.06456 17.1371C5.10994 16.6524 5.18419 15.9892 5.29982 15.2814C5.41473 14.578 5.57432 13.8065 5.796 13.114C6.00618 12.4574 6.31472 11.73 6.80204 11.2388C7.19111 10.8417 7.6549 10.5256 8.1667 10.3086C8.62706 10.1134 9.11807 10.0018 9.61667 9.9787ZM5.00147 17.9456C5.00146 17.9458 5.00145 17.9459 5.99999 18C6.05407 18.9986 6.05462 18.9985 6.05477 18.9985C5.77117 19.0139 5.49371 18.908 5.29288 18.7071C5.09205 18.5063 4.9861 18.2292 5.00147 17.9456Z" fill="black"/>
<path fill-rule="evenodd" clip-rule="evenodd" d="M1 2C1 1.44772 1.44772 1 2 1H12C12.5523 1 13 1.44772 13 2C13 2.55228 12.5523 3 12 3H3V21H21V12C21 11.4477 21.4477 11 22 11C22.5523 11 23 11.4477 23 12V22C23 22.5523 22.5523 23 22 23H2C1.44772 23 1 22.5523 1 22V2Z" fill="black"/>
</svg>

<svg width="24" height="24" viewBox="0 0 24 24" xmlns="http://www.w3.org/2000/svg"><path fill-rule="evenodd" clip-rule="evenodd" d="M19.085 3.328a1.122 1.122 0 0 1 1.586 1.586l-7.194 7.195a4.217 4.217 0 0 0-1.58-1.583l7.188-7.198Zm-9.346 8.647a.994.994 0 0 0 .406.024 2.213 2.213 0 0 1 1.86 1.893c-.011.11-.005.224.02.333a2.212 2.212 0 0 1-.665 1.546l-.007.006c-.138.138-.48.332-1.077.522-.561.18-1.226.32-1.88.427a24.71 24.71 0 0 1-1.297.175c.042-.384.099-.832.175-1.297.106-.654.247-1.319.427-1.88.19-.596.384-.939.522-1.077l.006-.007a2.213 2.213 0 0 1 1.51-.665ZM9.617 9.98l8.053-8.065a3.124 3.124 0 0 1 4.415 0 3.124 3.124 0 0 1 0 4.414l-8.064 8.065a4.213 4.213 0 0 1-1.26 2.805c-.491.487-1.218.796-1.875 1.006-.692.222-1.464.381-2.167.496a27.742 27.742 0 0 1-2.603.295l-.044.002-.013.001h-.004L6 18l-.999-.054v-.006l.001-.012.003-.044.011-.164a27.784 27.784 0 0 1 .284-2.439c.115-.703.274-1.475.496-2.167.21-.657.519-1.384 1.006-1.875a4.213 4.213 0 0 1 2.815-1.26ZM5 17.946 6 18c.054.999.055.998.055.998A1.001 1.001 0 0 1 5 17.947Z"/><path fill-rule="evenodd" clip-rule="evenodd" d="M1 2a1 1 0 0 1 1-1h10a1 1 0 1 1 0 2H3v18h18v-9a1 1 0 1 1 2 0v10a1 1 0 0 1-1 1H2a1 1 0 0 1-1-1V2Z"/></svg>
